X: 40401
T: Tom Kruskal's
R: reel
M: 4/4
K: Fmajor
F2cF GFCF|DFFc BAGF|c2BA GFDF|CFFE F2AG|
GFcF GF CF|DFFc BA GF|B3A GFDF|CFFE FGAB||
c2BA GFDC|DBAB AFGA|DBAB AFGA|AccA G2AB|
c2BA GFAc|dAAG A2 GA|B3A GFDF|CFFE F2||

